;FLAVOR:Marlin
;TIME:3662
;Filament used: 21.7538m
;Layer height: 0.6
;Generated with Cura_SteamEngine 4.0.0
M140 S63
M105
M190 S63
M104 S205
M105
M109 S205
M82 ;absolute extrusion mode
; Ender 3 Custom Start G-code
G28 ; Home all axes
G29;
G92 E0 ; Reset Extruder
G1 Z2.0 F3000 ; Move Z Axis up little to prevent scratching of Heat Bed
G1 X0.1 Y20 Z0.3 F5000.0 ; Move to start position
G1 X0.1 Y200.0 Z0.3 F1500.0 E15 ; Draw the first line
G1 X0.4 Y200.0 Z0.3 F5000.0 ; Move to side a little
G1 X0.4 Y20 Z0.3 F1500.0 E30 ; Draw the second line
G92 E0 ; Reset Extruder
G1 Z2.0 F3000 ; Move Z Axis up little to prevent scratching of Heat Bed
; End of custom start GCode
G92 E0
G1 F2400 E-5
;LAYER_COUNT:22
;LAYER:0
M107
M204 S5000
M205 X30 Y30
G0 F1800 X23.397 Y84.631 Z0.2
M204 S350
M205 X20 Y20
;TYPE:SKIRT
G1 F2400 E0
G1 F1350 X24.172 Y84.473 E0.05593
G1 X24.96 Y84.395 E0.11193
G1 X25.751 Y84.397 E0.16787
G1 X26.539 Y84.478 E0.22389
G1 X27.314 Y84.639 E0.27987
G1 X28.069 Y84.876 E0.33583
G1 X28.904 Y85.243 E0.40034
G1 X36.089 Y88.913 E0.9709
G1 X45.134 Y93.259 E1.68057
G1 X56.693 Y98.362 E2.57413
G1 X63.275 Y101.029 E3.07636
G1 X71.911 Y104.276 E3.72884
G1 X82.586 Y107.918 E4.52649
G1 X87.61 Y109.324 E4.89544
G1 X92.766 Y110.457 E5.26877
G1 X95.2 Y110.882 E5.4435
G1 X100.442 Y111.574 E5.81743
G1 X105.624 Y111.962 E6.18492
G1 X110.853 Y112.057 E6.55477
G1 X116.041 Y111.858 E6.92194
G1 X121.321 Y111.354 E7.29703
G1 X123.534 Y111.051 E7.45499
G1 X128.56 Y110.159 E7.81598
G1 X133.611 Y108.984 E8.18272
G1 X138.358 Y107.63 E8.53182
G1 X140.967 Y106.772 E8.72605
G1 X154.551 Y101.669 E9.75225
G1 X154.7 Y101.615 E9.76345
G1 X165.284 Y97.882 E10.55714
G1 X165.489 Y97.813 E10.57244
G1 X176.472 Y94.278 E11.38839
G1 X176.68 Y94.214 E11.40378
G1 X186.177 Y91.445 E12.10336
G1 X186.372 Y91.391 E12.11767
G1 X197.688 Y88.407 E12.94529
G1 X197.912 Y88.352 E12.9616
G1 X208.002 Y86.006 E13.69419
G1 X208.781 Y85.865 E13.75018
G1 X209.57 Y85.805 E13.80614
G1 X210.361 Y85.824 E13.86209
G1 X211.146 Y85.923 E13.91805
G1 X211.917 Y86.1 E13.97399
G1 X212.667 Y86.355 E14.03001
G1 X213.387 Y86.684 E14.08599
G1 X214.07 Y87.083 E14.14193
G1 X214.644 Y87.498 E14.19202
G1 X215.074 Y87.839 E14.23084
G1 X215.669 Y88.362 E14.28686
G1 X216.208 Y88.941 E14.3428
G1 X216.685 Y89.572 E14.39874
G1 X217.096 Y90.249 E14.45475
G1 X217.438 Y90.963 E14.51074
G1 X217.705 Y91.708 E14.5667
G1 X217.896 Y92.476 E14.62267
G1 X218.008 Y93.259 E14.67861
G1 X218.041 Y93.975 E14.7293
G1 X218.061 Y142.18 E18.13832
G1 X218.021 Y142.97 E18.19426
G1 X217.902 Y143.753 E18.25027
G1 X217.705 Y144.519 E18.30621
G1 X217.431 Y145.262 E18.36221
G1 X217.083 Y145.973 E18.41819
G1 X216.666 Y146.645 E18.47412
G1 X216.183 Y147.272 E18.53009
G1 X215.639 Y147.847 E18.58607
G1 X215.04 Y148.364 E18.64203
G1 X214.392 Y148.819 E18.69802
G1 X213.701 Y149.205 E18.754
G1 X213.225 Y149.421 E18.79096
G1 X212.489 Y149.726 E18.84731
G1 X211.744 Y149.992 E18.90325
G1 X210.975 Y150.181 E18.95925
G1 X210.192 Y150.292 E19.01518
G1 X209.401 Y150.322 E19.07116
G1 X208.611 Y150.274 E19.12713
G1 X207.83 Y150.145 E19.18311
G1 X206.832 Y149.858 E19.25655
G1 X203.578 Y148.685 E19.50116
G1 X198.541 Y147.124 E19.87409
G1 X193.42 Y145.847 E20.24733
G1 X190.995 Y145.353 E20.42235
G1 X185.796 Y144.519 E20.79472
G1 X180.605 Y143.984 E21.16377
G1 X175.35 Y143.742 E21.53579
G1 X25.123 Y143.716 E32.15975
G1 X24.332 Y143.676 E32.21576
G1 X23.55 Y143.556 E32.27171
G1 X22.784 Y143.358 E32.32766
G1 X22.041 Y143.084 E32.38367
G1 X21.33 Y142.736 E32.43965
G1 X20.658 Y142.319 E32.49558
G1 X19.793 Y141.622 E32.57414
G1 X19.681 Y141.518 E32.58495
G1 X19.392 Y141.236 E32.6135
G1 X19.155 Y140.992 E32.63756
G1 X18.633 Y140.397 E32.69353
G1 X18.173 Y139.753 E32.7495
G1 X17.781 Y139.065 E32.8055
G1 X17.461 Y138.342 E32.86141
G1 X17.215 Y137.589 E32.91744
G1 X17.046 Y136.816 E32.97339
G1 X16.956 Y136.03 E33.02934
G1 X16.94 Y135.533 E33.06451
G1 X16.939 Y92.571 E36.10275
G1 X16.979 Y91.781 E36.15869
G1 X17.098 Y90.998 E36.2147
G1 X17.296 Y90.232 E36.27065
G1 X17.57 Y89.49 E36.32659
G1 X17.918 Y88.779 E36.38257
G1 X18.336 Y88.106 E36.4386
G1 X18.819 Y87.479 E36.49457
G1 X19.363 Y86.905 E36.5505
G1 X19.962 Y86.388 E36.60645
G1 X20.653 Y85.907 E36.666
G1 X21.219 Y85.557 E36.71306
G1 X21.913 Y85.175 E36.76908
G1 X22.641 Y84.866 E36.82501
G1 X23.397 Y84.631 E36.881
M204 S5000
M205 X30 Y30
G0 F1800 X23.714 Y85.387
M204 S350
M205 X20 Y20
G1 F1350 X24.451 Y85.253 E36.93397
G1 X25.198 Y85.197 E36.98695
G1 X25.947 Y85.222 E37.03995
G1 X26.689 Y85.327 E37.09294
G1 X27.416 Y85.51 E37.14596
G1 X28.119 Y85.769 E37.19894
G1 X28.535 Y85.965 E37.23146
G1 X35.683 Y89.616 E37.79909
G1 X44.807 Y94 E38.51495
G1 X56.368 Y99.104 E39.40867
G1 X62.986 Y101.786 E39.91366
G1 X71.62 Y105.032 E40.56598
G1 X82.357 Y108.695 E41.36826
G1 X87.414 Y110.11 E41.73963
G1 X92.611 Y111.252 E42.11593
G1 X95.076 Y111.683 E42.29289
G1 X100.364 Y112.381 E42.6701
G1 X105.584 Y112.771 E43.04028
G1 X110.852 Y112.867 E43.4129
G1 X116.114 Y112.665 E43.7853
G1 X121.387 Y112.162 E44.15989
G1 X123.685 Y111.847 E44.32392
G1 X128.712 Y110.956 E44.68497
G1 X133.796 Y109.772 E45.05413
G1 X138.607 Y108.4 E45.40793
G1 X141.263 Y107.527 E45.60564
G1 X154.836 Y102.428 E46.63101
G1 X154.969 Y102.379 E46.64104
G1 X165.553 Y98.646 E47.43472
G1 X165.738 Y98.584 E47.44852
G1 X176.721 Y95.049 E48.26447
G1 X176.907 Y94.992 E48.27823
G1 X186.404 Y92.223 E48.97782
G1 X186.579 Y92.174 E48.99067
G1 X197.895 Y89.19 E49.81829
G1 X198.095 Y89.141 E49.83285
G1 X208.185 Y86.795 E50.56544
G1 X208.923 Y86.664 E50.61845
G1 X209.671 Y86.613 E50.67147
G1 X210.42 Y86.642 E50.72448
G1 X211.161 Y86.75 E50.77743
G1 X211.887 Y86.937 E50.83045
G1 X212.589 Y87.2 E50.88347
G1 X213.258 Y87.536 E50.93641
G1 X214.141 Y88.133 E51.01179
G1 X214.571 Y88.474 E51.0506
G1 X215.133 Y88.97 E51.10361
G1 X215.638 Y89.523 E51.15657
G1 X216.082 Y90.127 E51.20958
G1 X216.458 Y90.775 E51.26256
G1 X216.764 Y91.459 E51.31556
G1 X216.995 Y92.172 E51.36856
G1 X217.149 Y92.906 E51.4216
G1 X217.231 Y93.975 E51.49742
G1 X217.251 Y142.18 E54.90645
G1 X217.211 Y142.928 E54.95942
G1 X217.092 Y143.668 E55.01242
G1 X216.895 Y144.391 E55.06542
G1 X216.622 Y145.089 E55.11842
G1 X216.276 Y145.754 E55.17143
G1 X215.861 Y146.378 E55.22443
G1 X215.382 Y146.954 E55.27741
G1 X214.844 Y147.476 E55.33042
G1 X214.254 Y147.938 E55.38342
G1 X213.618 Y148.335 E55.43644
G1 X212.915 Y148.673 E55.4916
G1 X212.179 Y148.978 E55.54794
G1 X211.473 Y149.227 E55.60089
G1 X210.744 Y149.4 E55.65387
G1 X210 Y149.494 E55.70691
G1 X209.251 Y149.509 E55.75988
G1 X208.504 Y149.444 E55.81291
G1 X207.769 Y149.299 E55.86589
G1 X207.107 Y149.096 E55.91486
G1 X203.831 Y147.914 E56.16116
G1 X198.764 Y146.345 E56.53628
G1 X193.593 Y145.056 E56.91316
G1 X191.144 Y144.556 E57.08992
G1 X185.9 Y143.715 E57.46551
G1 X180.673 Y143.176 E57.83712
G1 X175.365 Y142.932 E58.2129
G1 X25.123 Y142.906 E68.83792
G1 X24.374 Y142.866 E68.89096
G1 X23.635 Y142.746 E68.94391
G1 X22.912 Y142.549 E68.9969
G1 X22.214 Y142.275 E69.04993
G1 X21.55 Y141.929 E69.10288
G1 X20.926 Y141.513 E69.15592
G1 X20.344 Y141.029 E69.20945
G1 X20.232 Y140.925 E69.22026
G1 X19.973 Y140.672 E69.24586
G1 X19.736 Y140.428 E69.26992
G1 X19.243 Y139.863 E69.32295
G1 X18.813 Y139.249 E69.37596
G1 X18.451 Y138.593 E69.42894
G1 X18.161 Y137.902 E69.48194
G1 X17.947 Y137.184 E69.53492
G1 X17.81 Y136.447 E69.58794
G1 X17.75 Y135.533 E69.65271
G1 X17.749 Y92.571 E72.69096
G1 X17.789 Y91.823 E72.74393
G1 X17.908 Y91.083 E72.79694
G1 X18.106 Y90.36 E72.84995
G1 X18.379 Y89.662 E72.90295
G1 X18.726 Y88.998 E72.95594
G1 X19.141 Y88.374 E73.00893
G1 X19.62 Y87.798 E73.06191
G1 X20.158 Y87.276 E73.11492
G1 X20.748 Y86.814 E73.16792
G1 X21.079 Y86.596 E73.19595
G1 X21.645 Y86.246 E73.24301
G1 X22.303 Y85.887 E73.29602
G1 X22.995 Y85.599 E73.34903
G1 X23.714 Y85.387 E73.40204
M204 S5000
M205 X30 Y30
G0 F1800 X24.024 Y86.147
M204 S350
M205 X20 Y20
G1 F1350 X24.72 Y86.037 E73.45187
G1 X25.424 Y86.007 E73.5017
G1 X26.127 Y86.056 E73.55154
G1 X26.82 Y86.185 E73.60139
G1 X27.494 Y86.391 E73.65123
G1 X28.167 Y86.686 E73.70319
G1 X35.343 Y90.351 E74.27303
G1 X44.466 Y94.735 E74.98883
G1 X56.06 Y99.853 E75.88509
G1 X62.678 Y102.535 E76.39008
G1 X71.369 Y105.802 E77.04669
G1 X82.106 Y109.466 E77.849
G1 X87.218 Y110.896 E78.22439
G1 X92.461 Y112.048 E78.60402
G1 X94.948 Y112.483 E78.78257
G1 X100.268 Y113.185 E79.16206
G1 X105.562 Y113.581 E79.53749
G1 X110.869 Y113.678 E79.91286
G1 X116.151 Y113.475 E80.28668
G1 X121.501 Y112.965 E80.66674
G1 X123.808 Y112.649 E80.83142
G1 X128.871 Y111.75 E81.19507
G1 X133.996 Y110.557 E81.56719
G1 X138.857 Y109.171 E81.92466
G1 X141.508 Y108.299 E82.12202
G1 X155.12 Y103.186 E83.15032
G1 X155.239 Y103.143 E83.15927
G1 X165.823 Y99.41 E83.95296
G1 X165.986 Y99.355 E83.96512
G1 X176.969 Y95.82 E84.78107
G1 X177.133 Y95.769 E84.79322
G1 X186.63 Y93 E85.49281
G1 X186.785 Y92.957 E85.50418
G1 X198.101 Y89.973 E86.3318
G1 X198.279 Y89.929 E86.34477
G1 X208.369 Y87.583 E87.07736
G1 X209.063 Y87.463 E87.12717
G1 X209.767 Y87.422 E87.17704
G1 X210.47 Y87.461 E87.22683
G1 X211.165 Y87.579 E87.27668
G1 X211.842 Y87.776 E87.32654
G1 X212.493 Y88.047 E87.37641
G1 X213.108 Y88.391 E87.42625
G1 X213.638 Y88.767 E87.4722
G1 X214.068 Y89.108 E87.51101
G1 X214.594 Y89.577 E87.56085
G1 X215.064 Y90.102 E87.61068
G1 X215.472 Y90.677 E87.66054
G1 X215.812 Y91.295 E87.71042
G1 X216.08 Y91.947 E87.76028
G1 X216.272 Y92.625 E87.81011
G1 X216.386 Y93.32 E87.85992
G1 X216.421 Y93.975 E87.9063
G1 X216.441 Y142.18 E91.31533
G1 X216.401 Y142.884 E91.3652
G1 X216.282 Y143.579 E91.41506
G1 X216.085 Y144.256 E91.46493
G1 X215.813 Y144.906 E91.51476
G1 X215.469 Y145.521 E91.56459
G1 X215.057 Y146.093 E91.61444
G1 X214.583 Y146.615 E91.66431
G1 X214.053 Y147.08 E91.71417
G1 X213.474 Y147.482 E91.76402
G1 X212.605 Y147.925 E91.833
G1 X211.869 Y148.23 E91.88934
G1 X211.204 Y148.462 E91.93915
G1 X210.516 Y148.618 E91.98904
G1 X209.816 Y148.694 E92.03883
G1 X209.111 Y148.691 E92.08869
G1 X208.411 Y148.609 E92.13853
G1 X207.725 Y148.447 E92.18838
G1 X207.382 Y148.334 E92.21392
G1 X204.103 Y147.151 E92.46044
G1 X198.971 Y145.561 E92.84039
G1 X193.787 Y144.269 E93.21821
G1 X191.29 Y143.76 E93.39843
G1 X185.99 Y142.91 E93.77803
G1 X180.723 Y142.367 E94.15248
G1 X175.403 Y142.122 E94.52911
G1 X25.123 Y142.096 E105.15682
G1 X24.419 Y142.056 E105.20668
G1 X23.725 Y141.936 E105.25649
G1 X23.048 Y141.739 E105.30635
G1 X22.398 Y141.466 E105.35621
G1 X21.783 Y141.122 E105.40604
G1 X21.211 Y140.71 E105.4559
G1 X20.895 Y140.435 E105.48552
G1 X20.783 Y140.331 E105.49633
G1 X20.554 Y140.107 E105.51898
G1 X20.317 Y139.863 E105.54304
G1 X19.855 Y139.331 E105.59287
G1 X19.457 Y138.749 E105.64273
G1 X19.127 Y138.126 E105.69259
G1 X18.87 Y137.47 E105.74241
G1 X18.688 Y136.789 E105.79226
G1 X18.585 Y136.092 E105.84209
G1 X18.56 Y135.533 E105.88166
G1 X18.559 Y92.571 E108.91991
G1 X18.599 Y91.867 E108.96977
G1 X18.718 Y91.173 E109.01957
G1 X18.916 Y90.496 E109.06945
G1 X19.188 Y89.846 E109.11928
G1 X19.533 Y89.231 E109.16915
G1 X19.945 Y88.659 E109.219
G1 X20.418 Y88.138 E109.26877
G1 X20.948 Y87.673 E109.31863
G1 X21.505 Y87.285 E109.36663
G1 X22.071 Y86.935 E109.4137
G1 X22.691 Y86.599 E109.46357
G1 X23.344 Y86.335 E109.51338
G1 X24.024 Y86.147 E109.56327
M204 S5000
M205 X30 Y30
G0 F1800 X23.689 Y87.074
M204 S350
M205 X20 Y20
G1 F1350 X24.326 Y86.912 E109.60975
G1 X24.978 Y86.828 E109.65624
G1 X25.635 Y86.824 E109.70271
G1 X26.288 Y86.9 E109.7492
G1 X26.927 Y87.054 E109.79568
G1 X27.799 Y87.408 E109.86224
G1 X34.969 Y91.07 E110.4316
G1 X44.126 Y95.47 E111.15006
G1 X55.752 Y100.603 E112.04881
G1 X62.403 Y103.298 E112.55631
G1 X71.088 Y106.563 E113.21248
G1 X81.86 Y110.238 E114.01738
G1 X87.018 Y111.681 E114.39615
G1 X92.307 Y112.844 E114.77913
G1 X94.824 Y113.284 E114.95983
G1 X100.191 Y113.992 E115.34266
G1 X105.522 Y114.391 E115.72072
G1 X110.867 Y114.488 E116.09878
G1 X116.207 Y114.283 E116.4767
G1 X121.59 Y113.77 E116.85911
G1 X123.934 Y113.448 E117.02643
G1 X129.045 Y112.542 E117.39351
G1 X134.196 Y111.343 E117.76753
G1 X139.083 Y109.949 E118.12692
G1 X141.783 Y109.061 E118.32792
G1 X155.405 Y103.944 E119.35699
G1 X155.508 Y103.907 E119.36472
G1 X166.092 Y100.174 E120.15841
G1 X166.234 Y100.126 E120.16901
G1 X177.217 Y96.591 E120.98496
G1 X177.36 Y96.547 E120.99554
G1 X186.857 Y93.778 E121.69513
G1 X186.992 Y93.741 E121.70503
G1 X198.308 Y90.757 E122.53264
G1 X198.462 Y90.718 E122.54388
G1 X208.552 Y88.372 E123.27647
G1 X209.2 Y88.263 E123.32294
G1 X209.857 Y88.233 E123.36945
G1 X210.512 Y88.282 E123.4159
G1 X211.156 Y88.411 E123.46235
G1 X211.781 Y88.617 E123.50889
G1 X212.375 Y88.898 E123.55536
G1 X213.134 Y89.402 E123.61979
G1 X213.564 Y89.743 E123.6586
G1 X214.054 Y90.182 E123.70513
G1 X214.486 Y90.677 E123.75159
G1 X214.855 Y91.221 E123.79808
G1 X215.155 Y91.806 E123.84457
G1 X215.382 Y92.422 E123.891
G1 X215.533 Y93.062 E123.9375
G1 X215.611 Y93.976 E124.00237
G1 X215.631 Y142.181 E127.4114
G1 X215.591 Y142.837 E127.45788
G1 X215.472 Y143.483 E127.50433
G1 X215.276 Y144.11 E127.55079
G1 X215.004 Y144.709 E127.59731
G1 X214.662 Y145.27 E127.64378
G1 X214.255 Y145.786 E127.69025
G1 X213.788 Y146.248 E127.73671
G1 X213.268 Y146.651 E127.78324
G1 X212.703 Y146.987 E127.82972
G1 X212.295 Y147.176 E127.86152
G1 X211.559 Y147.481 E127.91786
G1 X210.938 Y147.695 E127.96432
G1 X210.295 Y147.833 E128.01082
G1 X209.64 Y147.891 E128.05733
G1 X208.983 Y147.869 E128.10381
G1 X208.334 Y147.768 E128.15026
G1 X207.656 Y147.572 E128.20018
G1 X204.354 Y146.381 E128.44842
G1 X199.205 Y144.786 E128.82962
G1 X193.942 Y143.474 E129.21321
G1 X191.435 Y142.963 E129.39415
G1 X186.112 Y142.109 E129.7754
G1 X180.772 Y141.558 E130.15505
G1 X175.419 Y141.312 E130.53401
G1 X25.123 Y141.286 E141.16284
G1 X24.467 Y141.246 E141.20932
G1 X23.821 Y141.127 E141.25577
G1 X23.194 Y140.93 E141.30225
G1 X22.595 Y140.658 E141.34878
G1 X22.034 Y140.316 E141.39524
G1 X21.446 Y139.842 E141.44865
G1 X21.334 Y139.738 E141.45946
G1 X21.135 Y139.543 E141.47916
G1 X20.898 Y139.299 E141.50322
G1 X20.469 Y138.8 E141.54976
G1 X20.105 Y138.254 E141.59616
G1 X19.809 Y137.667 E141.64266
G1 X19.587 Y137.048 E141.68916
G1 X19.441 Y136.407 E141.73565
G1 X19.37 Y135.533 E141.79767
G1 X19.369 Y92.571 E144.83591
G1 X19.409 Y91.915 E144.88239
G1 X19.528 Y91.269 E144.92884
G1 X19.725 Y90.642 E144.97532
G1 X19.997 Y90.043 E145.02184
G1 X20.339 Y89.482 E145.06831
G1 X20.747 Y88.966 E145.11483
G1 X21.214 Y88.504 E145.16129
G1 X21.931 Y87.974 E145.22434
G1 X22.497 Y87.624 E145.2714
G1 X23.076 Y87.313 E145.31788
G1 X23.689 Y87.074 E145.36441
M204 S5000
M205 X30 Y30
G1 F2400 E140.36441
G0 F1800 X24.803 Y91.76
G0 X25.361 Y92.672
M204 S350
M205 X20 Y20
;TYPE:SUPPORT
G1 F2400 E145.36441
G1 F1350 X33.423 Y96.806 E146.00514
G1 X34.166 Y97.172 E146.06371
G1 X42.542 Y101.151 E146.7195
G1 X43.335 Y101.515 E146.7812
G1 X51.929 Y105.302 E147.44536
G1 X54.548 Y106.396 E147.64608
G1 X55.236 Y106.654 E147.69804
G1 X58.827 Y108.114 E147.97218
G1 X59.515 Y108.405 E148.02501
G1 X61.429 Y109.159 E148.17049
G1 X70.378 Y112.497 E148.84595
G1 X71.443 Y112.87 E148.92575
G1 X79.425 Y115.589 E149.52209
G1 X80.359 Y115.893 E149.59155
G1 X89.478 Y118.699 E150.26628
G1 X94.609 Y119.505 E150.63359
G1 X95.113 Y119.573 E150.66956
G1 X95.553 Y119.611 E150.70079
G1 X100.345 Y120.114 E151.04154
G1 X105.497 Y120.391 E151.40641
G1 X106.211 Y120.406 E151.45692
G1 X110.928 Y120.421 E151.7905
G1 X111.245 Y120.414 E151.81292
G1 X116.665 Y120.147 E152.19669
G1 X121.965 Y119.623 E152.57333
G1 X127.138 Y118.849 E152.94323
G1 X127.512 Y118.785 E152.97006
G1 X132.729 Y117.724 E153.34656
G1 X137.993 Y116.369 E153.73096
G1 X138.271 Y116.291 E153.75138
G1 X142.898 Y114.852 E154.09406
G1 X143.273 Y114.727 E154.12201
G1 X148.434 Y112.826 E154.51097
G1 X149.224 Y112.518 E154.57093
G1 X157.901 Y109.211 E155.22762
G1 X158.765 Y108.893 E155.29273
G1 X168.634 Y105.439 E156.03217
G1 X169.508 Y105.155 E156.09716
G1 X178.295 Y102.337 E156.74974
G1 X179.324 Y102.02 E156.82589
G1 X189.134 Y99.166 E157.54841
G1 X199.089 Y96.548 E158.27636
G1 X200.036 Y96.313 E158.34536
